!! 00000] TT[WS
!!!OTL: Fang yang
!!!ARE: Asia, China, Shanxi Dingxiang
!! Ethnic Group: Han
!! WI, 50
!!!SCT: J0052
!!!YEM: Copyright 1995, estate of Helmut Schaffrath.
**kern
*ICvox
*Ivox
!! Mixed meters:  2/4; 1/4
*M1/4
*k[f#]
*G:
{8a
8a
16b
16a
16b
16dd
=1
16dd
16b
16a
16b
4a
=2
8b
16b
16dd
16ee
16ff#
16ee
16dd
=3
8b
16a
16e
8.g
16a
=4
8b
16b
16a
=5
*M2/4
2dd}
=6
{8b
16b
16dd
16ee
16ff#
16ee
16dd
=7
8b
16a
16e
8.g
16a
=8
16b
16b
16a
16g
16f#
8e
16B
=9
2d}
=10
{8b
16b
16dd
16ee
16ff#
16ee
16dd
=11
8b
16a
16e
8.g
16a
=12
16b
16b
16a
16g
16f#
8e
16A
=13
2d}
==
!!!AGN: Xiaodiao. Laodong, Fangyang
!!!ONB: ESAC (Essen Associative Code) Database: CHINA
!!!AMT: irregular
!!!AIN: vox
!!!EED: Helmut Schaffrath
!!!EEV: 1.0
*-
